design/tomas.svg

<svg height="220" viewBox="0 0 148 220" width="148" xmlns="http://www.w3.org/2000/svg"><g fill="#262929" fill-rule="evenodd"><path d="m135.675203 116.518344c-.275 3.322-.94 21.373-18.696 24.771-20.0979999 3.846-29.3749999-4.823-31.2379999-16.003-.822-4.931-3.508-17.756.548-21.702 4.055-3.9459997 17.9749999-7.5629997 35.2929999-5.4799997 16.903 2.0319997 14.501 13.4809997 14.093 18.4139997zm-72.4399999 8.768c-1.863 11.18-11.14 19.849-31.238 16.003-17.756-3.398-18.422-21.449-18.697-24.771-.408-4.933-2.809-16.382 14.094-18.4139997 17.317-2.083 31.237 1.534 35.293 5.4799997 4.055 3.946 1.37 16.771.548 21.702zm83.4859999-21.462c-.153-.694-.649-1.247-1.3-1.531-6.311-2.7609997-16.064-9.0509997-37.028-8.2179997-16.0039999.636-26.6279999 4.501-31.2579999 6.5759997-1.694.76-3.601.76-5.295 0-4.629-2.0749997-15.253-5.9399997-31.257-6.5759997-20.964-.833-30.71700001 5.457-37.02800001 8.2179997-.651.284-1.147.837-1.301 1.531-.413 1.868-.722.812 2.44 4.921.404.525 1.053.811 1.716.811h2.314s1.169 23.731 11.39900001 30.746c10.23 7.015 26.939 6.707 34.636 2.777 5.428-2.771 9.207-7.161 11.106-13.737 1.9-6.577 1.675-21.076 8.623-21.076 6.205 0 6.722 14.499 8.622 21.076 1.9 6.576 5.678 10.966 11.107 13.737 7.6969999 3.93 24.4059999 4.238 34.6359999-2.777s11.399-30.746 11.399-30.746h2.314c.663 0 1.312-.286 1.716-.811 3.162-4.109 2.853-5.053 2.439-6.921z"/><path d="m46.15 113.374-5.513 5.262 2.24-7.263c-.714-.22-1.455-.373-2.24-.373-4.218 0-7.637 3.419-7.637 7.636 0 4.218 3.419 7.636 7.637 7.636 4.217 0 7.635-3.418 7.635-7.636 0-2.044-.814-3.891-2.122-5.262"/><path d="m115.15 113.374-5.513 5.262 2.24-7.263c-.714-.22-1.455-.373-2.24-.373-4.218 0-7.637 3.419-7.637 7.636 0 4.218 3.419 7.636 7.637 7.636 4.217 0 7.635-3.418 7.635-7.636 0-2.044-.814-3.891-2.122-5.262"/><path d="m.12756457 115.81c1.101 8.15 6.666 24.67 7.739 26.87 1.072 2.21 7.59600003 4.26 10.22200003 3.77 0 0-8.057-4.21-9.04400003-7.07-.987-2.86-11.12-28.64-3.63-29.96v-2.42s-6.388.66-5.287 8.81z"/><path d="m137.854565 138.31c-1.321 2.7-5.149 3.39-5.149 3.39v3.49s5.92-1.21 7.132-6.28c1.211-5.06 7.709-32.71 7.159-32.93-.551-.22-1.212-.33-2.313 0 0 0-5.507 29.63-6.829 32.33z"/><path d="m67.463 147.94c-1.125.55-2.056.88-.588 1.76 1.469.88 5.727 3.08 9.545 2.79s6.609-2.35 8.224-4.55c0 0-6.35 3.4-9.269 2.29-2.92-1.12-6.766-2.86-7.912-2.29"/><path d="m51.9648904 157.407529s-8.7841067 2.595255-10.3991067 4.355255c-1.616 1.76-3.1558933 1.664745-2.5458933.054745.798-2.12 9.567-4.41 12.945-4.41z" transform="matrix(.96592583 -.25881905 .25881905 .96592583 -39.922976 17.216371)"/><path d="m110.96489 157.407529s-8.784106 2.595255-10.399106 4.355255c-1.6160003 1.76-3.1558936 1.664745-2.5458936.054745.798-2.12 9.5669996-4.41 12.9449996-4.41z" transform="matrix(-.96592583 -.25881905 -.25881905 .96592583 246.760944 32.486695)"/><path d="m106.964638 6.47668208c-10.5750001-4.96-23.9510001-7.44-40.7720001-6.13-82.503 6.47-60.54200001 100.96999992-60.54200001 100.96999992l1.551-.02c-.013-.07 7.57400001-1.3999999 7.57400001-1.3999999s-20.13600001-95.14152585 48.417-66.1115259c1.1408631-.4831119 16.0409921 10.1910715 16.0409921 10.1910715l16.8366825 9.5623465s10.4778355 3.160627 15.3964845 3.0055867c4.918649-.1550404 13.834473-3.9269734 13.834473-3.9269734s2.153772-5.6520819 6.343583 3.9269734c8.173384 18.6865938 3.850785 43.3525212 3.850785 43.3525212l9.125 1.4199999c3.229-17.2199999-9.125-70.8599999-9.125-70.8599999-6.093-13.33-17.39-20.34-28.531-23.98000002z"/><path d="m127.763306 179.914704-.278748.342722c-10.114884 12.532221-30.9810448 38.037667-52.5874156 37.18086-18.4019151-.731141-41.369715-20.648639-51.4845992-33.18086l-.2787477-.342722c-7.0909292-8.773697-4.461034-28.383531-5.859342-38.151123-1.0053194-.628324-1.8312807-1.233801-2.4824535-1.793581.486666 4.478241-2.5385024 29.206064 7.0097473 41.018568 10.5684204 13.092 34.4410078 33.649247 53.1468035 34.231876 22.6471048-.75399 43.5783832-25.139876 54.1468032-38.231876 9.022742-11.172755 5.174647-31.958484 5.904646-38.104641-.947057.55978-1.763879.993895-2.443612 1.325194-1.434865 9.893257 2.189318 27.057551-4.793082 35.705583z"/><path d="m97.2155762 173.641113c1.932-.71-17.5016328 2.811035-20.8486328 2.811035-3.348 0-21.2237403-3.360957-21.3337403-2.480957-.0570376.452191 6.5434561 3.102778 14.222454 3.347668 7.2649773.231687 15.171881.055228 18.3843441-1.12611"/></g></svg>

<?xml version="1.0" encoding="UTF-8"?>
<svg width="148px" height="220px" viewBox="0 0 148 220" version="1.1" xmlns="http://www.w3.org/2000/svg" xmlns:xlink="http://www.w3.org/1999/xlink">
    <!-- Generator: Sketch 41.2 (35397) - http://www.bohemiancoding.com/sketch -->
    <title>Group</title>
    <desc>Created with Sketch.</desc>
    <defs></defs>
    <g id="Page-1" stroke="none" stroke-width="1" fill="none" fill-rule="evenodd">
        <g id="Group" fill="#262929">
            <path d="M135.675203,116.518344 C135.400203,119.840344 134.735203,137.891344 116.979203,141.289344 C96.8812031,145.135344 87.6042031,136.466344 85.7412031,125.286344 C84.9192031,120.355344 82.2332031,107.530344 86.2892031,103.584344 C90.3442031,99.6383443 104.264203,96.0213443 121.582203,98.1043443 C138.485203,100.136344 136.083203,111.585344 135.675203,116.518344 Z M63.2352031,125.286344 C61.3722031,136.466344 52.0952031,145.135344 31.9972031,141.289344 C14.2412031,137.891344 13.5752031,119.840344 13.3002031,116.518344 C12.8922031,111.585344 10.4912031,100.136344 27.3942031,98.1043443 C44.7112031,96.0213443 58.6312031,99.6383443 62.6872031,103.584344 C66.7422031,107.530344 64.0572031,120.355344 63.2352031,125.286344 Z M146.721203,103.824344 C146.568203,103.130344 146.072203,102.577344 145.421203,102.293344 C139.110203,99.5323443 129.357203,93.2423443 108.393203,94.0753443 C92.3892031,94.7113443 81.7652031,98.5763443 77.1352031,100.651344 C75.4412031,101.411344 73.5342031,101.411344 71.8402031,100.651344 C67.2112031,98.5763443 56.5872031,94.7113443 40.5832031,94.0753443 C19.6192031,93.2423443 9.86620309,99.5323443 3.55520309,102.293344 C2.90420309,102.577344 2.40820309,103.130344 2.25420309,103.824344 C1.84120309,105.692344 1.53220309,104.636344 4.69420309,108.745344 C5.09820309,109.270344 5.74720309,109.556344 6.41020309,109.556344 L8.72420309,109.556344 C8.72420309,109.556344 9.89320309,133.287344 20.1232031,140.302344 C30.3532031,147.317344 47.0622031,147.009344 54.7592031,143.079344 C60.1872031,140.308344 63.9662031,135.918344 65.8652031,129.342344 C67.7652031,122.765344 67.5402031,108.266344 74.4882031,108.266344 C80.6932031,108.266344 81.2102031,122.765344 83.1102031,129.342344 C85.0102031,135.918344 88.7882031,140.308344 94.2172031,143.079344 C101.914203,147.009344 118.623203,147.317344 128.853203,140.302344 C139.083203,133.287344 140.252203,109.556344 140.252203,109.556344 L142.566203,109.556344 C143.229203,109.556344 143.878203,109.270344 144.282203,108.745344 C147.444203,104.636344 147.135203,103.692344 146.721203,101.824344 L146.721203,103.824344 Z" id="Fill-362"></path>
            <path d="M46.15,113.374 L40.637,118.636 L42.877,111.373 C42.163,111.153 41.422,111 40.637,111 C36.419,111 33,114.419 33,118.636 C33,122.854 36.419,126.272 40.637,126.272 C44.854,126.272 48.272,122.854 48.272,118.636 C48.272,116.592 47.458,114.745 46.15,113.374" id="Fill-112"></path>
            <path d="M115.15,113.374 L109.637,118.636 L111.877,111.373 C111.163,111.153 110.422,111 109.637,111 C105.419,111 102,114.419 102,118.636 C102,122.854 105.419,126.272 109.637,126.272 C113.854,126.272 117.272,122.854 117.272,118.636 C117.272,116.592 116.458,114.745 115.15,113.374" id="Fill-112-Copy"></path>
            <path d="M0.12756457,115.81 C1.22856457,123.96 6.79356457,140.48 7.86656457,142.68 C8.93856457,144.89 15.4625646,146.94 18.0885646,146.45 C18.0885646,146.45 10.0315646,142.24 9.04456457,139.38 C8.05756457,136.52 -2.07543543,110.74 5.41456457,109.42 L5.41456457,107 C5.41456457,107 -0.97343543,107.66 0.12756457,115.81 Z" id="Fill-198"></path>
            <path d="M137.854565,138.31 C136.533565,141.01 132.705565,141.7 132.705565,141.7 L132.705565,145.19 C132.705565,145.19 138.625565,143.98 139.837565,138.91 C141.048565,133.85 147.546565,106.2 146.996565,105.98 C146.445565,105.76 145.784565,105.65 144.683565,105.98 C144.683565,105.98 139.176565,135.61 137.854565,138.31 Z" id="Fill-199"></path>
            <path d="M67.463,147.94 C66.338,148.49 65.407,148.82 66.875,149.7 C68.344,150.58 72.602,152.78 76.42,152.49 C80.238,152.2 83.029,150.14 84.644,147.94 C84.644,147.94 78.294,151.34 75.375,150.23 C72.455,149.11 68.609,147.37 67.463,147.94" id="Fill-44"></path>
            <path d="M51.9648904,157.407529 C51.9648904,157.407529 43.1807837,160.002784 41.5657837,161.762784 C39.9497837,163.522784 38.4098904,163.427529 39.0198904,161.817529 C39.8178904,159.697529 48.5868904,157.407529 51.9648904,157.407529 Z" id="Fill-47" transform="translate(45.424172, 160.230740) rotate(-15.000000) translate(-45.424172, -160.230740) "></path>
            <path d="M110.96489,157.407529 C110.96489,157.407529 102.180784,160.002784 100.565784,161.762784 C98.9497837,163.522784 97.4098904,163.427529 98.0198904,161.817529 C98.8178904,159.697529 107.58689,157.407529 110.96489,157.407529 Z" id="Fill-47-Copy" transform="translate(104.424172, 160.230740) scale(-1, 1) rotate(-15.000000) translate(-104.424172, -160.230740) "></path>
            <path d="M106.964638,6.47668208 C96.3896379,1.51668208 83.0136379,-0.963317922 66.1926379,0.346682078 C-16.3103621,6.81668208 5.65063789,101.316682 5.65063789,101.316682 L7.20163789,101.296682 C7.18863789,101.226682 14.7756379,99.8966821 14.7756379,99.8966821 C14.7756379,99.8966821 -5.36036211,4.75515625 63.1926379,33.7851562 C64.333501,33.3020443 79.23363,43.9762277 79.23363,43.9762277 L96.0703125,53.5385742 C96.0703125,53.5385742 106.548148,56.6992012 111.466797,56.5441609 C116.385446,56.3891205 125.30127,52.6171875 125.30127,52.6171875 C125.30127,52.6171875 127.455042,46.9651056 131.644853,56.5441609 C139.818237,75.2307547 135.495638,99.8966821 135.495638,99.8966821 L144.620638,101.316682 C147.849638,84.0966821 135.495638,30.4566821 135.495638,30.4566821 C129.402638,17.1266821 118.105638,10.1166821 106.964638,6.47668208 Z" id="Fill-202"></path>
            <path d="M127.763306,179.914704 L127.484558,180.257426 C117.369674,192.789647 96.5035132,218.295093 74.8971424,217.438286 C56.4952273,216.707145 33.5274274,196.789647 23.4125432,184.257426 L23.1337955,183.914704 C16.0428663,175.141007 18.6727615,155.531173 17.2744535,145.763581 C16.2691341,145.135257 15.4431728,144.52978 14.792,143.97 C15.278666,148.448241 12.2534976,173.176064 21.8017473,184.988568 C32.3701677,198.080568 56.2427551,218.637815 74.9485508,219.220444 C97.5956556,218.466454 118.526934,194.080568 129.095354,180.988568 C138.118096,169.815813 134.270001,149.030084 135,142.883927 C134.052943,143.443707 133.236121,143.877822 132.556388,144.209121 C131.121523,154.102378 134.745706,171.266672 127.763306,179.914704 Z" id="Fill-243"></path>
            <path d="M97.2155762,173.641113 C99.1475762,172.931113 79.7139434,176.452148 76.3669434,176.452148 C73.0189434,176.452148 55.1432031,173.091191 55.0332031,173.971191 C54.9761655,174.423382 61.5766592,177.073969 69.2556571,177.318859 C76.5206344,177.550546 84.4275381,177.374087 87.6400012,176.192749" id="Fill-211"></path>
        </g>
    </g>
</svg>
